X:1
T:Title
%%score { ( 1 3 ) | ( 2 4 ) }
L:1/8
M:4/4
K:G
V:1 bass nm="Grand Piano"
V:3 bass 
V:2 bass 
V:4 bass 
V:1
 z4 z2[Q:1/4=106] B,>C | z2 G,>G, G,[K:treble][DB] [DA]>[DG] | G2 F4 F>G | A6 z2 | %4
 [DGB]6 [DGB]>[DGc] | [DGd]4- [DGd][DGB][DAc][DGB] | [CEA]2 [G,CE]4 [G,DF]>E | D2 B2 A3 F | %8
[M:9/8] G6- G z z |[M:4/4] A6 z2 | B2 G4 G>G | c6 z2 | [DB]6 B>c | d4- dB[Ac][GB] | %14
 [EA]2 [CE]4 [Ee]>[Ee] | [Gd]2 G2 B3 A |[M:7/8] G-G-G- G- G3 |] %17
V:2
 z4 z2 G,>A, | B,6 z2 | [D,B,D]2 [D,A,D]4[K:treble] D>E | F6[K:bass] z2 | G,,6 G,>A, | %5
 B,4- B,G,F,G, | C,2 C,4 C,>[C,G,C] | [D,G,B,]2 [D,G,D]2 [D,F,C]3 [D,A,C] | %8
[M:9/8] [G,,G,]2 [C,E,]- [C,E,]/[C,E,]/ [G,,D,]2- [G,,D,][K:treble]D>E |[M:4/4] F6[K:bass] z2 | %10
 [G,DG]2 [G,B,D]4 z z/ =F/ | E6[K:bass] z2 | [G,,G,]6[K:treble] [G,D]>[G,A,D] | %13
 [G,B,G]4- [G,B,G][G,DG][K:bass][F,D][G,D] | [C,C]2 [C,G,]4 [C,G,]>[C,C] | %15
 [D,B,]2 [D,B,D]2 [D,G,D]3 [D,CD] |[M:7/8] G,,2 C,>C, G,,3 |] %17
V:3
 x8 | D6[K:treble] z2 | x8 | z2 D>D D[DAc] [DGB]>[DFA] | x8 | x8 | x8 | x8 | %8
[M:9/8] B,2 C- C/C/ B,2- B,F>G |[M:4/4] z2 D>D D[Ac] [GB]>[FA] | x8 | z2 G,>G, G,[Ec] [EG]>[^DA] | %12
 x8 | x8 | x8 | x8 |[M:7/8] [B,D]2 [G,E]>[A,^D] [B,=D]3 |] %17
V:4
 x8 | z2 G,,>G,, G,,[G,,G,] [B,,G,]>[B,,G,] | x6[K:treble] x2 | z2[K:bass] D,>D, D,D, D,>D, | x8 | %5
 x8 | x8 | x8 |[M:9/8] x7[K:treble] x2 |[M:4/4] z2[K:bass] D,>D, D,[D,D] [D,D]>[D,D] | x8 | %11
 z2[K:bass] C,>C, C,[C,G,] [C,G,]>[C,G,] | x6[K:treble] x2 | x6[K:bass] x2 | x8 | x8 |[M:7/8] x7 |] %17

